X: 391
T: Angus Grant
C: Bert Murray
R: strathspey
B: Bert Murray's "Bon Accord Collection" 1999 p.39
%
N: Written for Angus Grant the left handed fiddler from Lochaber
Z: 2011 John Chambers <jc:trillian.mit.edu>
M: 4/4
L: 1/8
K: C
[|\
vc>de>d (c<G)G2 | E>D C/E/G B<dd2 | d>ef>e d>cB>A | (3G^FG (3ABg (f<e)e2 |
c>Bd>c (3cea (3geg | G>ec>e (f<A)A2 | (3cBA (3dcB (3edc (3fed | (3gec (3ABg (e<c)c2 ||
c2(.G>.c) e2(.c>.e) | (3gec (3Gce (f<d)d2 | B2(.G>.B) d2(.B>.d) | (3bag (3fga | (g<e)e2 |
c2(.e>.c) g2(.e>.g) | c'>ge>c B<d d>e | (3fed (3cBA (3gfe (3dcB | (3GBd (3gfd (e<d)c2 |]

%%sep 2 1 500

